!!!!SEGMENT: pl-sa--l-1643--092_anonim--nicolai-solemnia-celebrat-nunc-ecclesia.krn
!!!cenid: 16xx:1450
!!!COM: Anonim
!!!COM-rismid: pe30004985
!!!CDT:
!!!CNT:
!!!OTL: Nicolai solemnia celebrat nunc Ecclesia
!!!PDT:
!!!AGN: Sacred
!!!SMS-siglum: PL-SA
!!!SMS-shelfmark: L 1643
!!!SMS-shelfwork: 092 W
!!!SMS-variant:
!!!SMS-altvar:
!!!NIFC-rismid: 1001064623
!!!system-decoration: [(s1,s2,s3,s4)][(s5,s6,s7,s8)]
!!!AIN: 8 empty
!!!key:
**kern	**text	**text	**text	**text	**text	**text	**text	**text	**kern	**text	**text	**text	**text	**text	**text	**text	**text	**kern	**text	**text	**text	**text	**text	**text	**text	**text	**kern	**text	**text	**text	**text	**text	**text	**text	**text	**kern	**text	**text	**text	**text	**text	**text	**text	**text	**kern	**text	**text	**text	**text	**text	**text	**text	**text	**kern	**text	**text	**text	**text	**text	**text	**text	**text	**kern	**text	**text	**text	**text	**text	**text	**text	**text
*part8	*part8	*part8	*part8	*part8	*part8	*part8	*part8	*part8	*part7	*part7	*part7	*part7	*part7	*part7	*part7	*part7	*part7	*part6	*part6	*part6	*part6	*part6	*part6	*part6	*part6	*part6	*part5	*part5	*part5	*part5	*part5	*part5	*part5	*part5	*part5	*part4	*part4	*part4	*part4	*part4	*part4	*part4	*part4	*part4	*part3	*part3	*part3	*part3	*part3	*part3	*part3	*part3	*part3	*part2	*part2	*part2	*part2	*part2	*part2	*part2	*part2	*part2	*part1	*part1	*part1	*part1	*part1	*part1	*part1	*part1	*part1
*staff8	*staff8	*staff8	*staff8	*staff8	*staff8	*staff8	*staff8	*staff8	*staff7	*staff7	*staff7	*staff7	*staff7	*staff7	*staff7	*staff7	*staff7	*staff6	*staff6	*staff6	*staff6	*staff6	*staff6	*staff6	*staff6	*staff6	*staff5	*staff5	*staff5	*staff5	*staff5	*staff5	*staff5	*staff5	*staff5	*staff4	*staff4	*staff4	*staff4	*staff4	*staff4	*staff4	*staff4	*staff4	*staff3	*staff3	*staff3	*staff3	*staff3	*staff3	*staff3	*staff3	*staff3	*staff2	*staff2	*staff2	*staff2	*staff2	*staff2	*staff2	*staff2	*staff2	*staff1	*staff1	*staff1	*staff1	*staff1	*staff1	*staff1	*staff1	*staff1
*Iempty	*	*	*	*	*	*	*	*	*Iempty	*	*	*	*	*	*	*	*	*Iempty	*	*	*	*	*	*	*	*	*Iempty	*	*	*	*	*	*	*	*	*Iempty	*	*	*	*	*	*	*	*	*Iempty	*	*	*	*	*	*	*	*	*Iempty	*	*	*	*	*	*	*	*	*Iempty	*	*	*	*	*	*	*	*
*I"Baſsus 2di Chori	*	*	*	*	*	*	*	*	*I"Altus secundi Chori.	*	*	*	*	*	*	*	*	*I"Cantus 2dus Secundi Chori.	*	*	*	*	*	*	*	*	*I"Primus Cantus 2di Chori	*	*	*	*	*	*	*	*	*I"Bassus Primi Chori.	*	*	*	*	*	*	*	*	*I"Cantus 3tius Primi Chori	*	*	*	*	*	*	*	*	*I"Cantus 2dus Primi Chori.	*	*	*	*	*	*	*	*	*I"Im(us) Cantus Primi Chori	*	*	*	*	*	*	*	*
*I'Coro 2 B	*	*	*	*	*	*	*	*	*I'Coro 2 A	*	*	*	*	*	*	*	*	*I'Coro 2 S 2	*	*	*	*	*	*	*	*	*I'Coro 2 S 1	*	*	*	*	*	*	*	*	*I'Coro 1 B	*	*	*	*	*	*	*	*	*I'Coro 1 S 3	*	*	*	*	*	*	*	*	*I'Coro 1 S 2	*	*	*	*	*	*	*	*	*I'Coro 1 S 1	*	*	*	*	*	*	*	*
*clefC3	*	*	*	*	*	*	*	*	*clefC2	*	*	*	*	*	*	*	*	*clefC1	*	*	*	*	*	*	*	*	*clefG2	*	*	*	*	*	*	*	*	*clefC3	*	*	*	*	*	*	*	*	*clefC2	*	*	*	*	*	*	*	*	*clefC1	*	*	*	*	*	*	*	*	*clefG2	*	*	*	*	*	*	*	*
*k[]	*	*	*	*	*	*	*	*	*k[]	*	*	*	*	*	*	*	*	*k[]	*	*	*	*	*	*	*	*	*k[]	*	*	*	*	*	*	*	*	*k[]	*	*	*	*	*	*	*	*	*k[]	*	*	*	*	*	*	*	*	*k[]	*	*	*	*	*	*	*	*	*k[]	*	*	*	*	*	*	*	*
*C:	*	*	*	*	*	*	*	*	*C:	*	*	*	*	*	*	*	*	*C:	*	*	*	*	*	*	*	*	*C:	*	*	*	*	*	*	*	*	*C:	*	*	*	*	*	*	*	*	*C:	*	*	*	*	*	*	*	*	*C:	*	*	*	*	*	*	*	*	*C:	*	*	*	*	*	*	*	*
*M3/1	*	*	*	*	*	*	*	*	*M3/1	*	*	*	*	*	*	*	*	*M3/1	*	*	*	*	*	*	*	*	*M3/1	*	*	*	*	*	*	*	*	*M3/1	*	*	*	*	*	*	*	*	*M3/1	*	*	*	*	*	*	*	*	*M3/1	*	*	*	*	*	*	*	*	*M3/1	*	*	*	*	*	*	*	*
=1-	=1-	=1-	=1-	=1-	=1-	=1-	=1-	=1-	=1-	=1-	=1-	=1-	=1-	=1-	=1-	=1-	=1-	=1-	=1-	=1-	=1-	=1-	=1-	=1-	=1-	=1-	=1-	=1-	=1-	=1-	=1-	=1-	=1-	=1-	=1-	=1-	=1-	=1-	=1-	=1-	=1-	=1-	=1-	=1-	=1-	=1-	=1-	=1-	=1-	=1-	=1-	=1-	=1-	=1-	=1-	=1-	=1-	=1-	=1-	=1-	=1-	=1-	=1-	=1-	=1-	=1-	=1-	=1-	=1-	=1-	=1-
!!LO:TX:t=P:problem:w źródle metrum trójdzielne zapisane jako 3/2, ale ze względu na podział nut w taktach transkrybujemy jako 3/1:global
!!LO:TX:a:t=P:w źródle pogrubione pierwsze litery w tekstach zwrotek w każdym głosie:problem
!	!	!	!	!	!	!	!	!	!	!	!	!	!	!	!	!	!	!	!	!	!	!	!	!	!	!	!LO:TX:a:Bi:t=Pro Festo Sancti Nicolai A 8 V.	!	!	!	!	!	!	!	!	!LO:TX:a:Bi:t=Pro Festo Sancti Nicolai A 8 V.	!	!	!	!	!	!	!	!	!	!	!	!	!	!	!	!	!	!	!	!	!	!	!	!	!	!	!	!	!	!	!	!	!	!	!
!LO:TX:a:Bi:t=Pro Festo Sancti Nicolai A 8 V.	!	!	!	!	!	!	!	!	!	!	!	!	!	!	!	!	!	!	!	!	!	!	!	!	!	!	!	!	!	!	!	!	!	!	!	!	!	!	!	!	!	!	!	!	!	!	!	!	!	!	!	!	!	!	!	!	!	!	!	!	!	!	!LO:TX:a:Bi:t=Pro Festo Sancti Nicolai A 8 V.	!	!	!	!	!	!	!	!
1c	Ni-	Iſ-	Cu-	O	Lau-	Al-	Ut	Sit	1e	Ni-	Iſ-	Cu-	O	Lau-	Al-	Ut	Sit	1cc	Ni-	Iſ-	Cu-	O	Lau-	Al-	Ut	Sit	1cc	Ni-	Iſ-	Cu-	O	Lau-	Al-	Ut	Sit	1c	Ni-	Iſ-	Cu-	O	Lau-	Al-	Ut	Sit	1g	Ni-	Iſ-	Cu-	O	Lau-	Al-	Ut	Sit	1cc	Ni-	Iſ-	Cu-	O	Lau-	Al-	Ut	Sit	1cc	Ni-	Iſ-	Cu-	O	Lau-	Al-	Ut	Sit
1c	-co-	-te	-ius	be-	-de-	-me	tu-	laus	1e	-co-	-te	-ius	be-	-de-	-me	tu-	laus	1cc	-co-	-te	-ius	be-	-de-	-me	tu-	laus	1cc	-co-	-te	-ius	be-	-de-	-me	tu-	laus	1c	-co-	-te	-ius	be-	-de-	-me	tu-	laus	1g	-co-	-te	-ius	be-	-de-	-me	tu-	laus	1cc	-co-	-te	-ius	be-	-de-	-me	tu-	laus	1ee	-co-	-te	-ius	be-	-de-	-me	tu-	laus
1F	-lai	San-	be-	-a-	-mus	Pra-	-is	Pat-	1c	-lai	San-	be-	-a-	-mus	Pra-	-is	Pat-	1cc	-lai	San-	be-	-a-	-mus	Pra-	-is	Pat-	1cc	-lai	San-	be-	-a-	-mus	Pra-	-is	Pat-	1f	-lai	San-	be-	-a-	-mus	Pra-	-is	Pat-	1a	-lai	San-	be-	-a-	-mus	Pra-	-is	Pat-	1a	-lai	San-	be-	-a-	-mus	Pra-	-is	Pat-	1ff	-lai	San-	be-	-a-	-mus	Pra-	-is	Pat-
=2-	=2-	=2-	=2-	=2-	=2-	=2-	=2-	=2-	=2-	=2-	=2-	=2-	=2-	=2-	=2-	=2-	=2-	=2-	=2-	=2-	=2-	=2-	=2-	=2-	=2-	=2-	=2-	=2-	=2-	=2-	=2-	=2-	=2-	=2-	=2-	=2-	=2-	=2-	=2-	=2-	=2-	=2-	=2-	=2-	=2-	=2-	=2-	=2-	=2-	=2-	=2-	=2-	=2-	=2-	=2-	=2-	=2-	=2-	=2-	=2-	=2-	=2-	=2-	=2-	=2-	=2-	=2-	=2-	=2-	=2-	=2-
*lig	*	*	*	*	*	*	*	*	*lig	*	*	*	*	*	*	*	*	*	*	*	*	*	*	*	*	*	*lig	*	*	*	*	*	*	*	*	*	*	*	*	*	*	*	*	*	*lig	*	*	*	*	*	*	*	*	*	*	*	*	*	*	*	*	*	*lig	*	*	*	*	*	*	*	*
1c	so-	-ctus	-ni-	-te	vo-	-sul	San-	-ri	1e	so-	-ctus	-ni-	-te	vo-	-sul	San-	-ri	0cc	so-	-ctus	-ni-	-te	vo-	-sul	San-	-ri	1ee	so-	-ctus	-ni-	-te	vo-	-sul	San-	-ri	2c/	so-	-ctus	-ni-	-te	vo-	-sul	San-	-ri	1g	so-	-ctus	-ni-	-te	vo-	-sul	San-	-ri	0cc	so-	-ctus	-ni-	-te	vo-	-sul	San-	-ri	1ee	so-	-ctus	-ni-	-te	vo-	-sul	San-	-ri
.	.	.	.	.	.	.	.	.	.	.	.	.	.	.	.	.	.	.	.	.	.	.	.	.	.	.	.	.	.	.	.	.	.	.	.	2d\	.	.	.	.	.	.	.	.	.	.	.	.	.	.	.	.	.	.	.	.	.	.	.	.	.	.	.	.	.	.	.	.	.	.	.
!	!	!	!	!	!	!	!	!	!	!	!	!	!	!	!	!	!	!	!	!	!	!	!	!	!	!	!	!	!	!	!	!	!	!	!	!	!	!	!	!	!	!	!	!	!LO:TX:t=P:global:problem=kreska oddechu na różnych liniach [rozdzielacz słów / znak oddechu]	!	!	!	!	!	!	!	!	!	!	!	!	!	!	!	!	!	!	!	!	!	!	!	!	!	!
!LO:TX:t=P:global:problem=kreska oddechu na różnych liniach [rozdzielacz słów / znak oddechu]	!	!	!	!	!	!	!	!	!	!	!	!	!	!	!	!	!	!	!	!	!	!	!	!	!	!	!	!	!	!	!	!	!	!	!	!	!	!	!	!	!	!	!	!	!	!	!	!	!	!	!	!	!	!	!	!	!	!	!	!	!	!	!	!	!	!	!	!	!	!	!
!	!	!	!	!	!	!	!	!	!	!	!	!	!	!	!	!	!	!	!	!	!	!	!	!	!	!	!	!	!	!	!	!	!	!	!	!	!	!	!	!	!	!	!	!	!	!	!	!	!	!	!	!	!	!	!	!	!	!	!	!	!	!	!LO:TX:t=P:problem=# below	!	!	!	!	!	!	!	!
1A,<	.	.	.	.	.	.	.	.	1a	.	.	.	.	.	.	.	.	.	.	.	.	.	.	.	.	.	1cc	.	.	.	.	.	.	.	.	2e\	.	.	.	.	.	.	.	.	1a,<	.	.	.	.	.	.	.	.	.	.	.	.	.	.	.	.	.	1ff#X	.	.	.	.	.	.	.	.
.	.	.	.	.	.	.	.	.	.	.	.	.	.	.	.	.	.	.	.	.	.	.	.	.	.	.	.	.	.	.	.	.	.	.	.	2f\	.	.	.	.	.	.	.	.	.	.	.	.	.	.	.	.	.	.	.	.	.	.	.	.	.	.	.	.	.	.	.	.	.	.	.
*Xlig	*	*	*	*	*	*	*	*	*Xlig	*	*	*	*	*	*	*	*	*	*	*	*	*	*	*	*	*	*Xlig	*	*	*	*	*	*	*	*	*	*	*	*	*	*	*	*	*	*Xlig	*	*	*	*	*	*	*	*	*	*	*	*	*	*	*	*	*	*Xlig	*	*	*	*	*	*	*	*
1G	-le(m)-	mi-	-gna	Ni-	-tis	et	-ctis	cum	1d	-le(m)-	mi-	-gna	Ni-	-tis	et	-ctis	cum	1g	-le(m)-	mi-	-gna	Ni-	-tis	et	-ctis	cum	1dd	-le(m)-	mi-	-gna	Ni-	-tis	et	-ctis	cum	1g	-le(m)-	mi-	-gna	Ni-	-tis	et	-ctis	cum	1b	-le(m)-	mi-	-gna	Ni-	-tis	et	-ctis	cum	1b	-le(m)-	mi-	-gna	Ni-	-tis	et	-ctis	cum	1gg	-le(m)-	mi-	-gna	Ni-	-tis	et	-ctis	cum
=3-	=3-	=3-	=3-	=3-	=3-	=3-	=3-	=3-	=3-	=3-	=3-	=3-	=3-	=3-	=3-	=3-	=3-	=3-	=3-	=3-	=3-	=3-	=3-	=3-	=3-	=3-	=3-	=3-	=3-	=3-	=3-	=3-	=3-	=3-	=3-	=3-	=3-	=3-	=3-	=3-	=3-	=3-	=3-	=3-	=3-	=3-	=3-	=3-	=3-	=3-	=3-	=3-	=3-	=3-	=3-	=3-	=3-	=3-	=3-	=3-	=3-	=3-	=3-	=3-	=3-	=3-	=3-	=3-	=3-	=3-	=3-
!	!	!	!	!	!	!	!	!	!	!	!	!	!	!	!	!	!	!	!	!	!	!	!	!	!	!	!	!	!	!	!	!	!	!	!	!	!	!	!	!	!	!	!	!	!	!	!	!	!	!	!	!	!	!	!	!	!	!	!	!	!	!	!LO:TX:t=P:problem=# below	!	!	!	!	!	!	!	!
0d	-ni-	-ra-	gra-	-co-	in-	Be-	pre-	Fi-	0d	-ni-	-ra-	gra-	-co-	in-	Be-	pre-	Fi-	0a	-ni-	-ra-	gra-	-co-	in-	Be-	pre-	Fi-	0dd	-ni-	-ra-	gra-	-co-	in-	Be-	pre-	Fi-	0d	-ni-	-ra-	gra-	-co-	in-	Be-	pre-	Fi-	0a	-ni-	-ra-	gra-	-co-	in-	Be-	pre-	Fi-	0dd	-ni-	-ra-	gra-	-co-	in-	Be-	pre-	Fi-	0ff#X	-ni-	-ra-	gra-	-co-	in-	Be-	pre-	Fi-
!	!	!	!	!	!	!	!	!	!	!	!	!	!	!	!	!	!	!	!	!	!	!	!	!	!	!	!	!	!	!	!	!	!	!	!	!	!	!	!	!	!	!	!	!	!	!	!	!	!	!	!	!	!	!	!	!	!	!	!	!	!	!	!LO:TX:t=P:problem=# below	!	!	!	!	!	!	!	!
1d	-a,	-bi-	-ti-	-lae	-ti-	-a-	-ci-	-li-	1d	-a,	-bi-	-ti-	-lae	-ti-	-a-	-ci-	-li-	1a	-a,	-bi-	-ti-	-lae	-ti-	-a-	-ci-	-li-	1dd	-a,	-bi-	-ti-	-lae	-ti-	-a-	-ci-	-li-	1d	-a,	-bi-	-ti-	-lae	-ti-	-a-	-ci-	-li-	1a	-a,	-bi-	-ti-	-lae	-ti-	-a-	-ci-	-li-	1dd	-a,	-bi-	-ti-	-lae	-ti-	-a-	-ci-	-li-	1ff#X	-a,	-bi-	-ti-	-lae	-ti-	-a-	-ci-	-li-
=4-	=4-	=4-	=4-	=4-	=4-	=4-	=4-	=4-	=4-	=4-	=4-	=4-	=4-	=4-	=4-	=4-	=4-	=4-	=4-	=4-	=4-	=4-	=4-	=4-	=4-	=4-	=4-	=4-	=4-	=4-	=4-	=4-	=4-	=4-	=4-	=4-	=4-	=4-	=4-	=4-	=4-	=4-	=4-	=4-	=4-	=4-	=4-	=4-	=4-	=4-	=4-	=4-	=4-	=4-	=4-	=4-	=4-	=4-	=4-	=4-	=4-	=4-	=4-	=4-	=4-	=4-	=4-	=4-	=4-	=4-	=4-
!	!	!	!	!	!	!	!	!	!	!	!	!	!	!	!	!	!	!	!	!	!	!	!	!	!	!	!	!	!	!	!	!	!	!	!	!	!	!	!	!	!	!	!	!	!	!	!	!	!	!	!	!	!	!LO:TX:t=P:global:problem=kreska oddechu na różnych liniach [rozdzielacz słów / znak oddechu]	!	!	!	!	!	!	!	!	!	!	!	!	!	!	!	!	!
!	!	!	!	!	!	!	!	!	!	!	!	!	!	!	!	!	!	!	!	!	!	!	!	!	!	!	!	!	!	!	!	!	!	!	!	!	!	!	!	!	!	!	!	!	!	!	!	!	!	!	!	!	!	!	!	!	!	!	!	!	!	!	!LO:TX:t=P:global:problem=kreska oddechu na różnych liniach [rozdzielacz słów / znak oddechu]	!	!	!	!	!	!	!	!
!	!	!	!	!	!	!	!	!	!	!	!	!	!	!	!	!	!	!	!	!	!	!	!	!	!	!	!	!	!	!	!	!	!	!	!	!LO:TX:t=P:global:problem=kreska oddechu na różnych liniach [rozdzielacz słów / znak oddechu]	!	!	!	!	!	!	!	!	!	!	!	!	!	!	!	!	!	!	!	!	!	!	!	!	!	!	!	!	!	!	!	!	!	!	!
0G	.	-lis	-a	.	-mis	-te	-bus	-o	0d	.	-lis	-a	.	-mis	-te	-bus	-o	0b	.	-lis	-a	.	-mis	-te	-bus	-o	0dd	.	-lis	-a	.	-mis	-te	-bus	-o	0g,<	.	-lis	-a	.	-mis	-te	-bus	-o	0g,<	.	-lis	-a	.	-mis	-te	-bus	-o	0b,<	.	-lis	-a	.	-mis	-te	-bus	-o	0gg,<	.	-lis	-a	.	-mis	-te	-bus	-o
1r	.	.	.	.	.	.	.	.	1r	.	.	.	.	.	.	.	.	1r	.	.	.	.	.	.	.	.	1r	.	.	.	.	.	.	.	.	1g	ce-	Om-	La-	Nos	Qui	Re-	O-	San-	1g	ce-	Om-	La-	Nos	Qui	Re-	O-	San-	1b	ce-	Om-	La-	Nos	Qui	Re-	O-	San-	1gg	ce-	Om-	La-	Nos	Qui	Re-	O-	San-
=5-	=5-	=5-	=5-	=5-	=5-	=5-	=5-	=5-	=5-	=5-	=5-	=5-	=5-	=5-	=5-	=5-	=5-	=5-	=5-	=5-	=5-	=5-	=5-	=5-	=5-	=5-	=5-	=5-	=5-	=5-	=5-	=5-	=5-	=5-	=5-	=5-	=5-	=5-	=5-	=5-	=5-	=5-	=5-	=5-	=5-	=5-	=5-	=5-	=5-	=5-	=5-	=5-	=5-	=5-	=5-	=5-	=5-	=5-	=5-	=5-	=5-	=5-	=5-	=5-	=5-	=5-	=5-	=5-	=5-	=5-	=5-
00.r	.	.	.	.	.	.	.	.	00.r	.	.	.	.	.	.	.	.	00.r	.	.	.	.	.	.	.	.	00.r	.	.	.	.	.	.	.	.	0f	-le-	-ni-	-te	ad	cla-	-ge	-pem	-cto	0cc	-le-	-ni-	-te	ad	cla-	-ge	-pem	-cto	1.cc	-le-	-ni-	-te	ad	cla-	-ge	-pem	-cto	0aa	-le-	-ni-	-te	ad	cla-	-ge	-pem	-cto
.	.	.	.	.	.	.	.	.	.	.	.	.	.	.	.	.	.	.	.	.	.	.	.	.	.	.	.	.	.	.	.	.	.	.	.	.	.	.	.	.	.	.	.	.	.	.	.	.	.	.	.	.	.	2dd\	.	.	.	.	.	.	.	.	.	.	.	.	.	.	.	.	.
.	.	.	.	.	.	.	.	.	.	.	.	.	.	.	.	.	.	.	.	.	.	.	.	.	.	.	.	.	.	.	.	.	.	.	.	1e	-brat	-bus	pa-	por-	-re-	tu-	fe-	ſi-	1g	-brat	-bus	pa-	por-	-re-	tu-	fe-	ſi-	1ee,<	-brat	-bus	pa-	por-	-re-	tu-	fe-	ſi-	1gg	-brat	-bus	pa-	por-	-re-	tu-	fe-	ſi-
=6-	=6-	=6-	=6-	=6-	=6-	=6-	=6-	=6-	=6-	=6-	=6-	=6-	=6-	=6-	=6-	=6-	=6-	=6-	=6-	=6-	=6-	=6-	=6-	=6-	=6-	=6-	=6-	=6-	=6-	=6-	=6-	=6-	=6-	=6-	=6-	=6-	=6-	=6-	=6-	=6-	=6-	=6-	=6-	=6-	=6-	=6-	=6-	=6-	=6-	=6-	=6-	=6-	=6-	=6-	=6-	=6-	=6-	=6-	=6-	=6-	=6-	=6-	=6-	=6-	=6-	=6-	=6-	=6-	=6-	=6-	=6-
*	*	*	*	*	*	*	*	*	*	*	*	*	*	*	*	*	*	*	*	*	*	*	*	*	*	*	*	*	*	*	*	*	*	*	*	*	*	*	*	*	*	*	*	*	*lig	*	*	*	*	*	*	*	*	*	*	*	*	*	*	*	*	*	*	*	*	*	*	*	*	*	*
.	.	.	.	.	.	.	.	.	.	.	.	.	.	.	.	.	.	.	.	.	.	.	.	.	.	.	.	.	.	.	.	.	.	.	.	0d	ec-	de-	-tet	-tum	-bat	-a	-ras	-mul	1a	ec-	de-	-tet	-tum	-bat	-a	-ras	-mul	1.a	ec-	de-	-tet	-tum	-bat	-a	-ras	-mul	0ffny	ec-	de-	-tet	-tum	-bat	-a	-ras	-mul
.	.	.	.	.	.	.	.	.	.	.	.	.	.	.	.	.	.	.	.	.	.	.	.	.	.	.	.	.	.	.	.	.	.	.	.	.	.	.	.	.	.	.	.	.	1f,<	.	.	.	.	.	.	.	.	.	.	.	.	.	.	.	.	.	.	.	.	.	.	.	.	.	.
.	.	.	.	.	.	.	.	.	.	.	.	.	.	.	.	.	.	.	.	.	.	.	.	.	.	.	.	.	.	.	.	.	.	.	.	.	.	.	.	.	.	.	.	.	.	.	.	.	.	.	.	.	.	2b\	.	.	.	.	.	.	.	.	.	.	.	.	.	.	.	.	.
*	*	*	*	*	*	*	*	*	*	*	*	*	*	*	*	*	*	*	*	*	*	*	*	*	*	*	*	*	*	*	*	*	*	*	*	*	*	*	*	*	*	*	*	*	*Xlig	*	*	*	*	*	*	*	*	*	*	*	*	*	*	*	*	*	*	*	*	*	*	*	*	*	*
.	.	.	.	.	.	.	.	.	.	.	.	.	.	.	.	.	.	.	.	.	.	.	.	.	.	.	.	.	.	.	.	.	.	.	.	1c	-cle-	-lec-	et	ma-	mi-	pie-	pe-	Pa-	1g	-cle-	-lec-	et	ma-	mi-	pie-	pe-	Pa-	1cc	-cle-	-lec-	et	ma-	mi-	pie-	pe-	Pa-	1ee	-cle-	-lec-	et	ma-	mi-	pie-	pe-	Pa-
=7-	=7-	=7-	=7-	=7-	=7-	=7-	=7-	=7-	=7-	=7-	=7-	=7-	=7-	=7-	=7-	=7-	=7-	=7-	=7-	=7-	=7-	=7-	=7-	=7-	=7-	=7-	=7-	=7-	=7-	=7-	=7-	=7-	=7-	=7-	=7-	=7-	=7-	=7-	=7-	=7-	=7-	=7-	=7-	=7-	=7-	=7-	=7-	=7-	=7-	=7-	=7-	=7-	=7-	=7-	=7-	=7-	=7-	=7-	=7-	=7-	=7-	=7-	=7-	=7-	=7-	=7-	=7-	=7-	=7-	=7-	=7-
*	*	*	*	*	*	*	*	*	*	*	*	*	*	*	*	*	*	*	*	*	*	*	*	*	*	*	*	*	*	*	*	*	*	*	*	*lig	*	*	*	*	*	*	*	*	*lig	*	*	*	*	*	*	*	*	*	*	*	*	*	*	*	*	*	*lig	*	*	*	*	*	*	*	*
00.r	.	.	.	.	.	.	.	.	00.r	.	.	.	.	.	.	.	.	00.r	.	.	.	.	.	.	.	.	00.r	.	.	.	.	.	.	.	.	1f	.	-ta-	glo-	-ris	-ra-	-ta-	-ten-	-ra-	1a	.	-ta-	glo-	-ris	-ra-	-ta-	-ten-	-ra-	0cc	.	-ta-	glo-	-ris	-ra-	-ta-	-ten-	-ra-	1ff	.	-ta-	glo-	-ris	-ra-	-ta-	-ten-	-ra-
.	.	.	.	.	.	.	.	.	.	.	.	.	.	.	.	.	.	.	.	.	.	.	.	.	.	.	.	.	.	.	.	.	.	.	.	1c	.	.	.	.	.	.	.	.	1g	.	.	.	.	.	.	.	.	.	.	.	.	.	.	.	.	.	1ee	.	.	.	.	.	.	.	.
*	*	*	*	*	*	*	*	*	*	*	*	*	*	*	*	*	*	*	*	*	*	*	*	*	*	*	*	*	*	*	*	*	*	*	*	*Xlig	*	*	*	*	*	*	*	*	*Xlig	*	*	*	*	*	*	*	*	*	*	*	*	*	*	*	*	*	*Xlig	*	*	*	*	*	*	*	*
.	.	.	.	.	.	.	.	.	.	.	.	.	.	.	.	.	.	.	.	.	.	.	.	.	.	.	.	.	.	.	.	.	.	.	.	1G	-ſi-	-bi-	-ri-	tra-	-cu-	.	-ti-	-cli-	1g	-ſi-	-bi-	-ri-	tra-	-cu-	.	-ti-	-cli-	1b	-ſi-	-bi-	-ri-	tra-	-cu-	.	-ti-	-cli-	1dd	-ſi-	-bi-	-ri-	tra-	-cu-	.	-ti-	-cli-
=8-	=8-	=8-	=8-	=8-	=8-	=8-	=8-	=8-	=8-	=8-	=8-	=8-	=8-	=8-	=8-	=8-	=8-	=8-	=8-	=8-	=8-	=8-	=8-	=8-	=8-	=8-	=8-	=8-	=8-	=8-	=8-	=8-	=8-	=8-	=8-	=8-	=8-	=8-	=8-	=8-	=8-	=8-	=8-	=8-	=8-	=8-	=8-	=8-	=8-	=8-	=8-	=8-	=8-	=8-	=8-	=8-	=8-	=8-	=8-	=8-	=8-	=8-	=8-	=8-	=8-	=8-	=8-	=8-	=8-	=8-	=8-
.	.	.	.	.	.	.	.	.	.	.	.	.	.	.	.	.	.	.	.	.	.	.	.	.	.	.	.	.	.	.	.	.	.	.	.	0c	-a,	-lis	-a	-be	-lis	-te	-bus	-to	0g	-a,	-lis	-a	-be	-lis	-te	-bus	-to	0cc	-a,	-lis	-a	-be	-lis	-te	-bus	-to	0ee	-a,	-lis	-a	-be	-lis	-te	-bus	-to
.	.	.	.	.	.	.	.	.	.	.	.	.	.	.	.	.	.	.	.	.	.	.	.	.	.	.	.	.	.	.	.	.	.	.	.	1r	.	.	.	.	.	.	.	.	1r	.	.	.	.	.	.	.	.	1r	.	.	.	.	.	.	.	.	1r	.	.	.	.	.	.	.	.
=9-	=9-	=9-	=9-	=9-	=9-	=9-	=9-	=9-	=9-	=9-	=9-	=9-	=9-	=9-	=9-	=9-	=9-	=9-	=9-	=9-	=9-	=9-	=9-	=9-	=9-	=9-	=9-	=9-	=9-	=9-	=9-	=9-	=9-	=9-	=9-	=9-	=9-	=9-	=9-	=9-	=9-	=9-	=9-	=9-	=9-	=9-	=9-	=9-	=9-	=9-	=9-	=9-	=9-	=9-	=9-	=9-	=9-	=9-	=9-	=9-	=9-	=9-	=9-	=9-	=9-	=9-	=9-	=9-	=9-	=9-	=9-
00.r	.	.	.	.	.	.	.	.	00.r	.	.	.	.	.	.	.	.	00.r	.	.	.	.	.	.	.	.	00.r	.	.	.	.	.	.	.	.	00.r	.	.	.	.	.	.	.	.	00.r	.	.	.	.	.	.	.	.	00.r	.	.	.	.	.	.	.	.	00.r	.	.	.	.	.	.	.	.
=10-	=10-	=10-	=10-	=10-	=10-	=10-	=10-	=10-	=10-	=10-	=10-	=10-	=10-	=10-	=10-	=10-	=10-	=10-	=10-	=10-	=10-	=10-	=10-	=10-	=10-	=10-	=10-	=10-	=10-	=10-	=10-	=10-	=10-	=10-	=10-	=10-	=10-	=10-	=10-	=10-	=10-	=10-	=10-	=10-	=10-	=10-	=10-	=10-	=10-	=10-	=10-	=10-	=10-	=10-	=10-	=10-	=10-	=10-	=10-	=10-	=10-	=10-	=10-	=10-	=10-	=10-	=10-	=10-	=10-	=10-	=10-
.	.	.	.	.	.	.	.	.	.	.	.	.	.	.	.	.	.	.	.	.	.	.	.	.	.	.	.	.	.	.	.	.	.	.	.	.	.	.	.	.	.	.	.	.	.	.	.	.	.	.	.	.	.	.	.	.	.	.	.	.	.	.	.	.	.	.	.	.	.	.	.
=11-	=11-	=11-	=11-	=11-	=11-	=11-	=11-	=11-	=11-	=11-	=11-	=11-	=11-	=11-	=11-	=11-	=11-	=11-	=11-	=11-	=11-	=11-	=11-	=11-	=11-	=11-	=11-	=11-	=11-	=11-	=11-	=11-	=11-	=11-	=11-	=11-	=11-	=11-	=11-	=11-	=11-	=11-	=11-	=11-	=11-	=11-	=11-	=11-	=11-	=11-	=11-	=11-	=11-	=11-	=11-	=11-	=11-	=11-	=11-	=11-	=11-	=11-	=11-	=11-	=11-	=11-	=11-	=11-	=11-	=11-	=11-
1r	.	.	.	.	.	.	.	.	1r	.	.	.	.	.	.	.	.	1r	.	.	.	.	.	.	.	.	1r	.	.	.	.	.	.	.	.	00.r	.	.	.	.	.	.	.	.	00.r	.	.	.	.	.	.	.	.	00.r	.	.	.	.	.	.	.	.	00.r	.	.	.	.	.	.	.	.
1r	.	.	.	.	.	.	.	.	1r	.	.	.	.	.	.	.	.	1r	.	.	.	.	.	.	.	.	1r	.	.	.	.	.	.	.	.	.	.	.	.	.	.	.	.	.	.	.	.	.	.	.	.	.	.	.	.	.	.	.	.	.	.	.	.	.	.	.	.	.	.	.	.
1c	ce-	Om-	La-	Nos	Qui	Re-	O-	San-	1cc	ce-	Om-	La-	Nos	Qui	Re-	O-	San-	1ee	ce-	Om-	La-	Nos	Qui	Re-	O-	San-	1ee	ce-	Om-	La-	Nos	Qui	Re-	O-	San-	.	.	.	.	.	.	.	.	.	.	.	.	.	.	.	.	.	.	.	.	.	.	.	.	.	.	.	.	.	.	.	.	.	.	.	.
=12-	=12-	=12-	=12-	=12-	=12-	=12-	=12-	=12-	=12-	=12-	=12-	=12-	=12-	=12-	=12-	=12-	=12-	=12-	=12-	=12-	=12-	=12-	=12-	=12-	=12-	=12-	=12-	=12-	=12-	=12-	=12-	=12-	=12-	=12-	=12-	=12-	=12-	=12-	=12-	=12-	=12-	=12-	=12-	=12-	=12-	=12-	=12-	=12-	=12-	=12-	=12-	=12-	=12-	=12-	=12-	=12-	=12-	=12-	=12-	=12-	=12-	=12-	=12-	=12-	=12-	=12-	=12-	=12-	=12-	=12-	=12-
0d	-le-	-ni-	-te	ad	cla-	-ge	-pem	-cto	0a	-le-	-ni-	-te	ad	cla-	-ge	-pem	-cto	1.dd	-le-	-ni-	-te	ad	cla-	-ge	-pem	-cto	0ff	-le-	-ni-	-te	ad	cla-	-ge	-pem	-cto	.	.	.	.	.	.	.	.	.	.	.	.	.	.	.	.	.	.	.	.	.	.	.	.	.	.	.	.	.	.	.	.	.	.	.	.
.	.	.	.	.	.	.	.	.	.	.	.	.	.	.	.	.	.	2cc\	.	.	.	.	.	.	.	.	.	.	.	.	.	.	.	.	.	.	.	.	.	.	.	.	.	.	.	.	.	.	.	.	.	.	.	.	.	.	.	.	.	.	.	.	.	.	.	.	.	.	.	.	.
1e	-brat	-bus	pa-	por-	-re-	tu-	fe-	ſi-	1g	-brat	-bus	pa-	por-	-re-	tu-	fe-	ſi-	1b	-brat	-bus	pa-	por-	-re-	tu-	fe-	ſi-	1ee	-brat	-bus	pa-	por-	-re-	tu-	fe-	ſi-	.	.	.	.	.	.	.	.	.	.	.	.	.	.	.	.	.	.	.	.	.	.	.	.	.	.	.	.	.	.	.	.	.	.	.	.
=13-	=13-	=13-	=13-	=13-	=13-	=13-	=13-	=13-	=13-	=13-	=13-	=13-	=13-	=13-	=13-	=13-	=13-	=13-	=13-	=13-	=13-	=13-	=13-	=13-	=13-	=13-	=13-	=13-	=13-	=13-	=13-	=13-	=13-	=13-	=13-	=13-	=13-	=13-	=13-	=13-	=13-	=13-	=13-	=13-	=13-	=13-	=13-	=13-	=13-	=13-	=13-	=13-	=13-	=13-	=13-	=13-	=13-	=13-	=13-	=13-	=13-	=13-	=13-	=13-	=13-	=13-	=13-	=13-	=13-	=13-	=13-
0f	ec-	de-	-tet	-tum	-bat	-a	-ras	-mul	0a	ec-	de-	-tet	-tum	-bat	-a	-ras	-mul	1.a	ec-	de-	-tet	-tum	-bat	-a	-ras	-mul	1.cc	ec-	de-	-tet	-tum	-bat	-a	-ras	-mul	00.r	.	.	.	.	.	.	.	.	00.r	.	.	.	.	.	.	.	.	00.r	.	.	.	.	.	.	.	.	00.r	.	.	.	.	.	.	.	.
.	.	.	.	.	.	.	.	.	.	.	.	.	.	.	.	.	.	2b\	.	.	.	.	.	.	.	.	2dd\	.	.	.	.	.	.	.	.	.	.	.	.	.	.	.	.	.	.	.	.	.	.	.	.	.	.	.	.	.	.	.	.	.	.	.	.	.	.	.	.	.	.	.	.
1c	-cle-	-lec-	et	ma-	mi-	pie-	pe-	Pa-	1g	-cle-	-lec-	et	ma-	mi-	pie-	pe-	Pa-	1cc	-cle-	-lec-	et	ma-	mi-	pie-	pe-	Pa-	1ee	-cle-	-lec-	et	ma-	mi-	pie-	pe-	Pa-	.	.	.	.	.	.	.	.	.	.	.	.	.	.	.	.	.	.	.	.	.	.	.	.	.	.	.	.	.	.	.	.	.	.	.	.
=14-	=14-	=14-	=14-	=14-	=14-	=14-	=14-	=14-	=14-	=14-	=14-	=14-	=14-	=14-	=14-	=14-	=14-	=14-	=14-	=14-	=14-	=14-	=14-	=14-	=14-	=14-	=14-	=14-	=14-	=14-	=14-	=14-	=14-	=14-	=14-	=14-	=14-	=14-	=14-	=14-	=14-	=14-	=14-	=14-	=14-	=14-	=14-	=14-	=14-	=14-	=14-	=14-	=14-	=14-	=14-	=14-	=14-	=14-	=14-	=14-	=14-	=14-	=14-	=14-	=14-	=14-	=14-	=14-	=14-	=14-	=14-
0g	.	-ta-	glo-	-ris	-ra-	-ta-	-ten-	-ra-	0g	.	-ta-	glo-	-ris	-ra-	-ta-	-ten-	-ra-	0b	.	-ta-	glo-	-ris	-ra-	-ta-	-ten-	-ra-	0dd	.	-ta-	glo-	-ris	-ra-	-ta-	-ten-	-ra-	.	.	.	.	.	.	.	.	.	.	.	.	.	.	.	.	.	.	.	.	.	.	.	.	.	.	.	.	.	.	.	.	.	.	.	.
1g	-ſi-	-bi-	-ri-	tra-	-cu-	.	-ti-	-cli-	1g	-ſi-	-bi-	-ri-	tra-	-cu-	.	-ti-	-cli-	1b	-ſi-	-bi-	-ri-	tra-	-cu-	.	-ti-	-cli-	1dd	-ſi-	-bi-	-ri-	tra-	-cu-	.	-ti-	-cli-	.	.	.	.	.	.	.	.	.	.	.	.	.	.	.	.	.	.	.	.	.	.	.	.	.	.	.	.	.	.	.	.	.	.	.	.
=15-	=15-	=15-	=15-	=15-	=15-	=15-	=15-	=15-	=15-	=15-	=15-	=15-	=15-	=15-	=15-	=15-	=15-	=15-	=15-	=15-	=15-	=15-	=15-	=15-	=15-	=15-	=15-	=15-	=15-	=15-	=15-	=15-	=15-	=15-	=15-	=15-	=15-	=15-	=15-	=15-	=15-	=15-	=15-	=15-	=15-	=15-	=15-	=15-	=15-	=15-	=15-	=15-	=15-	=15-	=15-	=15-	=15-	=15-	=15-	=15-	=15-	=15-	=15-	=15-	=15-	=15-	=15-	=15-	=15-	=15-	=15-
0c	-a,	-lis	-a	-be	-lis	-te	-bus	-to	0g	-a,	-lis	-a	-be	-lis	-te	-bus	-to	0cc	-a,	-lis	-a	-be	-lis	-te	-bus	-to	0ee	-a,	-lis	-a	-be	-lis	-te	-bus	-to	1c	No-	I-	Ex	Te	Tres	Ple-	Non	Qui	1cc	No-	I-	Ex	Te	Tres	Ple-	Non	Qui	1ee	No-	I-	Ex	Te	Tres	Ple-	Non	Qui	1gg	No-	I-	Ex	Te	Tres	Ple-	Non	Qui
.	.	.	.	.	.	.	.	.	.	.	.	.	.	.	.	.	.	.	.	.	.	.	.	.	.	.	.	.	.	.	.	.	.	.	.	1c	-uum	-nu-	tum-	col-	puel-	-bem	ge-	nos	1cc	-uum	-nu-	tum-	col-	puel-	-bem	ge-	nos	1ee	-uum	-nu-	tum-	col-	puel-	-bem	ge-	nos	1ee	-uum	-nu-	tum-	col-	puel-	-bem	ge-	nos
1r	.	.	.	.	.	.	.	.	1r	.	.	.	.	.	.	.	.	1r	.	.	.	.	.	.	.	.	1r	.	.	.	.	.	.	.	.	1d	ca-	-me-	-ba	-lau-	-las	tu-	-hen-	pur-	1a	ca-	-me-	-ba	-lau-	-las	tu-	-hen-	pur-	1dd	ca-	-me-	-ba	-lau-	-las	tu-	-hen-	pur-	1ff	ca-	-me-	-ba	-lau-	-las	tu-	-hen-	pur-
=16-	=16-	=16-	=16-	=16-	=16-	=16-	=16-	=16-	=16-	=16-	=16-	=16-	=16-	=16-	=16-	=16-	=16-	=16-	=16-	=16-	=16-	=16-	=16-	=16-	=16-	=16-	=16-	=16-	=16-	=16-	=16-	=16-	=16-	=16-	=16-	=16-	=16-	=16-	=16-	=16-	=16-	=16-	=16-	=16-	=16-	=16-	=16-	=16-	=16-	=16-	=16-	=16-	=16-	=16-	=16-	=16-	=16-	=16-	=16-	=16-	=16-	=16-	=16-	=16-	=16-	=16-	=16-	=16-	=16-	=16-	=16-
*	*	*	*	*	*	*	*	*	*	*	*	*	*	*	*	*	*	*	*	*	*	*	*	*	*	*	*	*	*	*	*	*	*	*	*	*	*	*	*	*	*	*	*	*	*lig	*	*	*	*	*	*	*	*	*	*	*	*	*	*	*	*	*	*	*	*	*	*	*	*	*	*
1c	No-	I-	Ex	Te	Tres	Ple-	Non	Qui	1e	No-	I-	Ex	Te	Tres	Ple-	Non	Qui	1cc	No-	I-	Ex	Te	Tres	Ple-	Non	Qui	1ee	No-	I-	Ex	Te	Tres	Ple-	Non	Qui	2c/	-nen-	-ris	o-	-dan-	li-	-am	-na	-ga-	1cc	-nen-	-ris	o-	-dan-	li-	-am	-na	-ga-	0ee	-nen-	-ris	o-	-dan-	li-	-am	-na	-ga-	0gg	-nen-	-ris	o-	-dan-	li-	-am	-na	-ga-
.	.	.	.	.	.	.	.	.	.	.	.	.	.	.	.	.	.	.	.	.	.	.	.	.	.	.	.	.	.	.	.	.	.	.	.	2d\	.	.	.	.	.	.	.	.	.	.	.	.	.	.	.	.	.	.	.	.	.	.	.	.	.	.	.	.	.	.	.	.	.	.	.
1c	-uum	-nu-	tum-	col-	puel-	-bem	ge-	nos	1g	-uum	-nu-	tum-	col-	puel-	-bem	ge-	nos	1cc	-uum	-nu-	tum-	col-	puel-	-bem	ge-	nos	1cc	-uum	-nu-	tum-	col-	puel-	-bem	ge-	nos	2e\	.	.	.	.	.	.	.	.	1g	.	.	.	.	.	.	.	.	.	.	.	.	.	.	.	.	.	.	.	.	.	.	.	.	.	.
.	.	.	.	.	.	.	.	.	.	.	.	.	.	.	.	.	.	.	.	.	.	.	.	.	.	.	.	.	.	.	.	.	.	.	.	2f\	.	.	.	.	.	.	.	.	.	.	.	.	.	.	.	.	.	.	.	.	.	.	.	.	.	.	.	.	.	.	.	.	.	.	.
*	*	*	*	*	*	*	*	*	*	*	*	*	*	*	*	*	*	*	*	*	*	*	*	*	*	*	*	*	*	*	*	*	*	*	*	*	*	*	*	*	*	*	*	*	*Xlig	*	*	*	*	*	*	*	*	*	*	*	*	*	*	*	*	*	*	*	*	*	*	*	*	*	*
1G	ca-	-me-	-ba	-lau-	-las	tu-	-hen-	pur-	1g	ca-	-me-	-ba	-lau-	-las	tu-	-hen-	pur-	1b	ca-	-me-	-ba	-lau-	-las	tu-	-hen-	pur-	1dd	ca-	-me-	-ba	-lau-	-las	tu-	-hen-	pur-	1g	-do	mi-	-le-	tes	-be-	quam	in-	-tos	1g,<	-do	mi-	-le-	tes	-be-	quam	in-	-tos	1dd	-do	mi-	-le-	tes	-be-	quam	in-	-tos	1gg	-do	mi-	-le-	tes	-be-	quam	in-	-tos
!	!	!	!	!	!	!	!	!	!	!	!	!	!	!	!	!	!	!	!	!	!	!	!	!	!	!	!	!	!	!	!	!	!	!	!	!	!	!	!	!	!	!	!	!	!	!	!	!	!	!	!	!	!	!LO:PB:g=original	!	!	!	!	!	!	!	!	!LO:PB:g=original	!	!	!	!	!	!	!	!
=17-	=17-	=17-	=17-	=17-	=17-	=17-	=17-	=17-	=17-	=17-	=17-	=17-	=17-	=17-	=17-	=17-	=17-	=17-	=17-	=17-	=17-	=17-	=17-	=17-	=17-	=17-	=17-	=17-	=17-	=17-	=17-	=17-	=17-	=17-	=17-	=17-	=17-	=17-	=17-	=17-	=17-	=17-	=17-	=17-	=17-	=17-	=17-	=17-	=17-	=17-	=17-	=17-	=17-	=17-	=17-	=17-	=17-	=17-	=17-	=17-	=17-	=17-	=17-	=17-	=17-	=17-	=17-	=17-	=17-	=17-	=17-
!	!	!	!	!	!	!	!	!	!	!	!	!	!	!	!	!	!	!	!	!	!	!	!	!	!	!	!	!	!	!	!	!	!	!	!	!LO:TX:a:t=P:problem=W źrodle nuta napisana na krawędzi strony	!	!	!	!	!	!	!	!	!	!	!	!	!	!	!	!	!	!	!	!	!	!	!	!	!	!	!	!	!	!	!	!	!	!	!
0c	-nen-	-ris	o-	-dan-	li-	-am	-na	-ga-	0g	-nen-	-ris	o-	-dan-	li-	-am	-na	-ga-	0cc	-nen-	-ris	o-	-dan-	li-	-am	-na	-ga-	0ee	-nen-	-ris	o-	-dan-	li-	-am	-na	-ga-	0c	can-	-ra-	-um	ho-	-ra-	fo-	-cen-	vi-	0g	can-	-ra-	-um	ho-	-ra-	fo-	-cen-	vi-	0cc	can-	-ra-	-um	ho-	-ra-	fo-	-cen-	vi-	0ee	can-	-ra-	-um	ho-	-ra-	fo-	-cen-	vi-
!	!	!	!	!	!	!	!	!	!	!	!	!	!	!	!	!	!	!	!	!	!	!	!	!	!	!	!	!	!	!	!	!	!	!	!	!LO:PB:g=original	!	!	!	!	!	!	!	!	!	!	!	!	!	!	!	!	!	!	!	!	!	!	!	!	!	!	!	!	!	!	!	!	!	!	!
1c	-do	mi-	-le-	tes	-be-	quam	in-	-tos	1e	-do	mi-	-le-	tes	-be-	quam	in-	-tos	1g	-do	mi-	-le-	tes	-be-	quam	in-	-tos	1cc	-do	mi-	-le-	tes	-be-	quam	in-	-tos	1c	-ti-	-cu-	ma-	-di-	.	-uis-	-di-	-ci-	1g	-ti-	-cu-	ma-	-di-	.	-uis-	-di-	-ci-	1cc	-ti-	-cu-	ma-	-di-	.	-uis-	-di-	-ci-	1ee	-ti-	-cu-	ma-	-di-	.	-uis-	-di-	-ci-
!	!	!	!	!	!	!	!	!	!	!	!	!	!	!	!	!	!	!LO:PB:g=original	!	!	!	!	!	!	!	!	!	!	!	!	!	!	!	!	!	!	!	!	!	!	!	!	!	!	!	!	!	!	!	!	!	!	!	!	!	!	!	!	!	!	!	!	!	!	!	!	!	!	!	!	!
=18-	=18-	=18-	=18-	=18-	=18-	=18-	=18-	=18-	=18-	=18-	=18-	=18-	=18-	=18-	=18-	=18-	=18-	=18-	=18-	=18-	=18-	=18-	=18-	=18-	=18-	=18-	=18-	=18-	=18-	=18-	=18-	=18-	=18-	=18-	=18-	=18-	=18-	=18-	=18-	=18-	=18-	=18-	=18-	=18-	=18-	=18-	=18-	=18-	=18-	=18-	=18-	=18-	=18-	=18-	=18-	=18-	=18-	=18-	=18-	=18-	=18-	=18-	=18-	=18-	=18-	=18-	=18-	=18-	=18-	=18-	=18-
0G	can-	-ra-	-um	ho-	-ra-	fo-	-cen-	vi-	0g	can-	-ra-	-um	ho-	-ra-	fo-	-cen-	vi-	0b	can-	-ra-	-um	ho-	-ra-	fo-	-cen-	vi-	0dd	can-	-ra-	-um	ho-	-ra-	fo-	-cen-	vi-	0.g	-cum	-lis	-nat	-e	-uit	-ti	-o	-o	0.g	-cum	-lis	-nat	-e	-uit	-ti	-o	-o	0.b,<	-cum	-lis	-nat	-e	-uit	-ti	-o	-o	0.dd	-cum	-lis	-nat	-e	-uit	-ti	-o	-o
1G	-ti-	-cu-	ma-	-di-	.	-uis-	-di-	-ci-	1g	-ti-	-cu-	ma-	-di-	.	-uis-	-di-	-ci-	1g	-ti-	-cu-	ma-	-di-	.	-uis-	-di-	-ci-	1dd	-ti-	-cu-	ma-	-di-	.	-uis-	-di-	-ci-	.	.	.	.	.	.	.	.	.	.	.	.	.	.	.	.	.	.	.	.	.	.	.	.	.	.	.	.	.	.	.	.	.	.	.	.
!LO:PB:g=original	!	!	!	!	!	!	!	!	!	!	!	!	!	!	!	!	!	!	!	!	!	!	!	!	!	!	!	!	!	!	!	!	!	!	!	!	!	!	!	!	!	!	!	!	!LO:PB:g=original	!	!	!	!	!	!	!	!	!	!	!	!	!	!	!	!	!	!	!	!	!	!	!	!	!	!
=19-	=19-	=19-	=19-	=19-	=19-	=19-	=19-	=19-	=19-	=19-	=19-	=19-	=19-	=19-	=19-	=19-	=19-	=19-	=19-	=19-	=19-	=19-	=19-	=19-	=19-	=19-	=19-	=19-	=19-	=19-	=19-	=19-	=19-	=19-	=19-	=19-	=19-	=19-	=19-	=19-	=19-	=19-	=19-	=19-	=19-	=19-	=19-	=19-	=19-	=19-	=19-	=19-	=19-	=19-	=19-	=19-	=19-	=19-	=19-	=19-	=19-	=19-	=19-	=19-	=19-	=19-	=19-	=19-	=19-	=19-	=19-
1c	-cum	-lis	-nat	-e	-uit	-ti	-o	-o	1e	-cum	-lis	-nat	-e	-uit	-ti	-o	-o	1g	-cum	-lis	-nat	-e	-uit	-ti	-o	-o	1ee	-cum	-lis	-nat	-e	-uit	-ti	-o	-o	1c	Lae-	De-	cun-	Re-	Au-	Le-	Fru-	Coe-	1g	Lae-	De-	cun-	Re-	Au-	Le-	Fru-	Coe-	1cc	Lae-	De-	cun-	Re-	Au-	Le-	Fru-	Coe-	1cc	Lae-	De-	cun-	Re-	Au-	Le-	Fru-	Coe-
!	!	!	!	!	!	!	!	!	!LO:PB:g=original	!	!	!	!	!	!	!	!	!	!	!	!	!	!	!	!	!	!LO:PB:g=original	!	!	!	!	!	!	!	!	!	!	!	!	!	!	!	!	!	!	!	!	!	!	!	!	!	!	!	!	!	!	!	!	!	!	!	!	!	!	!	!	!	!	!	!
1r	.	.	.	.	.	.	.	.	1r	.	.	.	.	.	.	.	.	1r	.	.	.	.	.	.	.	.	1r	.	.	.	.	.	.	.	.	1A	-ti-	-co-	.	.	-ro	-gem	.	.	1a	-ti-	-co-	.	.	-ro	-gem	.	.	1cc	-ti-	-co-	.	.	-ro	-gem	.	.	1cc	-ti-	-co-	.	.	-ro	-gem	.	.
1r	.	.	.	.	.	.	.	.	1r	.	.	.	.	.	.	.	.	1r	.	.	.	.	.	.	.	.	1r	.	.	.	.	.	.	.	.	1G	-fi-	-ra-	-ctos-	.	e-	Chris-	-a-	.	1b	-fi-	-ra-	-ctos-	.	e-	Chris-	-a-	.	1b	-fi-	-ra-	-ctos-	.	e-	Chris-	-a-	.	1dd	-fi-	-ra-	-ctos-	.	e-	Chris-	-a-	.
=20-	=20-	=20-	=20-	=20-	=20-	=20-	=20-	=20-	=20-	=20-	=20-	=20-	=20-	=20-	=20-	=20-	=20-	=20-	=20-	=20-	=20-	=20-	=20-	=20-	=20-	=20-	=20-	=20-	=20-	=20-	=20-	=20-	=20-	=20-	=20-	=20-	=20-	=20-	=20-	=20-	=20-	=20-	=20-	=20-	=20-	=20-	=20-	=20-	=20-	=20-	=20-	=20-	=20-	=20-	=20-	=20-	=20-	=20-	=20-	=20-	=20-	=20-	=20-	=20-	=20-	=20-	=20-	=20-	=20-	=20-	=20-
1c	Lae-	De-	cun-	Re-	Au-	Le-	Fru-	Coe-	1e	Lae-	De-	cun-	Re-	Au-	Le-	Fru-	Coe-	1g	Lae-	De-	cun-	Re-	Au-	Le-	Fru-	Coe-	1cc	Lae-	De-	cun-	Re-	Au-	Le-	Fru-	Coe-	1c	-cat,	-tus,	-que	-gi	-as	-ti	-mur	-li	1g	-cat,	-tus,	-que	-gi	-as	-ti	-mur	-li	1cc	-cat,	-tus,	-que	-gi	-as	-ti	-mur	-li	1ee	-cat,	-tus,	-que	-gi	-as	-ti	-mur	-li
1A	-ti-	-co-	.	.	-ro	-gem	.	.	1e	-ti-	-co-	.	.	-ro	-gem	.	.	1a	-ti-	-co-	.	.	-ro	-gem	.	.	1cc	-ti-	-co-	.	.	-ro	-gem	.	.	1r	.	.	.	.	.	.	.	.	1r	.	.	.	.	.	.	.	.	1r	.	.	.	.	.	.	.	.	1r	.	.	.	.	.	.	.	.
1G	-fi-	-ra-	-ctos-	.	e-	Chris-	-a-	.	1g	-fi-	-ra-	-ctos-	.	e-	Chris-	-a-	.	1b	-fi-	-ra-	-ctos-	.	e-	Chris-	-a-	.	1dd	-fi-	-ra-	-ctos-	.	e-	Chris-	-a-	.	1r	.	.	.	.	.	.	.	.	1r	.	.	.	.	.	.	.	.	1r	.	.	.	.	.	.	.	.	1r	.	.	.	.	.	.	.	.
=21-	=21-	=21-	=21-	=21-	=21-	=21-	=21-	=21-	=21-	=21-	=21-	=21-	=21-	=21-	=21-	=21-	=21-	=21-	=21-	=21-	=21-	=21-	=21-	=21-	=21-	=21-	=21-	=21-	=21-	=21-	=21-	=21-	=21-	=21-	=21-	=21-	=21-	=21-	=21-	=21-	=21-	=21-	=21-	=21-	=21-	=21-	=21-	=21-	=21-	=21-	=21-	=21-	=21-	=21-	=21-	=21-	=21-	=21-	=21-	=21-	=21-	=21-	=21-	=21-	=21-	=21-	=21-	=21-	=21-	=21-	=21-
0c	-cat,	-tus,	-que	-gi	-as	-ti	-mur	-li	0g	-cat,	-tus,	-que	-gi	-as	-ti	-mur	-li	0cc	-cat,	-tus,	-que	-gi	-as	-ti	-mur	-li	0ee	-cat,	-tus,	-que	-gi	-as	-ti	-mur	-li	1c	lae-	de-	cun-	Re-	Au-	le-	fru-	Coe-	1g	lae-	de-	cun-	Re-	Au-	le-	fru-	Coe-	1cc	lae-	de-	cun-	Re-	Au-	le-	fru-	Coe-	1ee	lae-	de-	cun-	Re-	Au-	le-	fru-	Coe-
.	.	.	.	.	.	.	.	.	.	.	.	.	.	.	.	.	.	.	.	.	.	.	.	.	.	.	.	.	.	.	.	.	.	.	.	1c	-ti-	-co-	.	.	-ro	-gem	.	.	1g	-ti-	-co-	.	.	-ro	-gem	.	.	1cc	-ti-	-co-	.	.	-ro	-gem	.	.	1ee	-ti-	-co-	.	.	-ro	-gem	.	.
1r	.	.	.	.	.	.	.	.	1r	.	.	.	.	.	.	.	.	1r	.	.	.	.	.	.	.	.	1r	.	.	.	.	.	.	.	.	1F	-fi-	-ra-	-ctos-	.	e-	Chris-	-a-	.	1a	-fi-	-ra-	-ctos-	.	e-	Chris-	-a-	.	1cc	-fi-	-ra-	-ctos-	.	e-	Chris-	-a-	.	1ff	-fi-	-ra-	-ctos-	.	e-	Chris-	-a-	.
=22-	=22-	=22-	=22-	=22-	=22-	=22-	=22-	=22-	=22-	=22-	=22-	=22-	=22-	=22-	=22-	=22-	=22-	=22-	=22-	=22-	=22-	=22-	=22-	=22-	=22-	=22-	=22-	=22-	=22-	=22-	=22-	=22-	=22-	=22-	=22-	=22-	=22-	=22-	=22-	=22-	=22-	=22-	=22-	=22-	=22-	=22-	=22-	=22-	=22-	=22-	=22-	=22-	=22-	=22-	=22-	=22-	=22-	=22-	=22-	=22-	=22-	=22-	=22-	=22-	=22-	=22-	=22-	=22-	=22-	=22-	=22-
1c	lae-	de-	cun-	Re-	Au-	le-	fru-	Coe-	1g	lae-	de-	cun-	Re-	Au-	le-	fru-	Coe-	1cc	lae-	de-	cun-	Re-	Au-	le-	fru-	Coe-	1ee	lae-	de-	cun-	Re-	Au-	le-	fru-	Coe-	0c	-cat	-tus	-que	-gi	-as	-ti	-mur	-li	0g	-cat	-tus	-que	-gi	-as	-ti	-mur	-li	1.ee	-cat	-tus	-que	-gi	-as	-ti	-mur	-li	0gg	-cat	-tus	-que	-gi	-as	-ti	-mur	-li
1c	-ti-	-co-	-ctos-	.	-ro	-gem	.	-li	1e	-ti-	-co-	-ctos-	.	-ro	-gem	.	-li	1cc	-ti-	-co-	-ctos-	.	-ro	-gem	.	-li	1ee	-ti-	-co-	.	.	-ro	-gem	.	.	.	.	.	.	.	.	.	.	.	.	.	.	.	.	.	.	.	.	.	.	.	.	.	.	.	.	.	.	.	.	.	.	.	.	.	.
.	.	.	.	.	.	.	.	.	.	.	.	.	.	.	.	.	.	.	.	.	.	.	.	.	.	.	.	.	.	.	.	.	.	.	.	.	.	.	.	.	.	.	.	.	.	.	.	.	.	.	.	.	.	2dd\	.	.	.	.	.	.	.	.	.	.	.	.	.	.	.	.	.
1F	-fi-	-ra-	-que	.	e-	Chris-	-a-	col-	1f	-fi-	-ra-	-que	.	e-	Chris-	-a-	col-	1a	-fi-	-ra-	-que	.	e-	Chris-	-a-	col-	1ff	-fi-	-ra-	-ctos-	.	e-	Chris-	-a-	-li	1f	to-	lau-	lan-	com-	con-	do-	coe-	col-	1a	to-	lau-	lan-	com-	con-	do-	coe-	col-	1cc	to-	lau-	lan-	com-	con-	do-	coe-	col-	1ff	to-	lau-	lan-	com-	con-	do-	coe-	col-
=23-	=23-	=23-	=23-	=23-	=23-	=23-	=23-	=23-	=23-	=23-	=23-	=23-	=23-	=23-	=23-	=23-	=23-	=23-	=23-	=23-	=23-	=23-	=23-	=23-	=23-	=23-	=23-	=23-	=23-	=23-	=23-	=23-	=23-	=23-	=23-	=23-	=23-	=23-	=23-	=23-	=23-	=23-	=23-	=23-	=23-	=23-	=23-	=23-	=23-	=23-	=23-	=23-	=23-	=23-	=23-	=23-	=23-	=23-	=23-	=23-	=23-	=23-	=23-	=23-	=23-	=23-	=23-	=23-	=23-	=23-	=23-
0c	-cat	-tus	lan-	-gi	-as	-ti	-mur	-lo-	0g	-cat	-tus	lan-	-gi	-as	-ti	-mur	-lo-	0cc	-cat	-tus	lan-	-gi	-as	-ti	-mur	-lo-	0cc	-cat	-tus	-que	-gi	-as	-ti	-mur	col-	1.c	.	-da-	-gui-	-men-	-do-	-cu-	-li	-lo-	0g	.	-da-	-gui-	-men-	-do-	-cu-	-li	-lo-	0cc	.	-da-	-gui-	-men-	-do-	-cu-	-li	-lo-	2ee\	.	-da-	-gui-	-men-	-do-	-cu-	-li	-lo-
.	.	.	.	.	.	.	.	.	.	.	.	.	.	.	.	.	.	.	.	.	.	.	.	.	.	.	.	.	.	.	.	.	.	.	.	.	.	.	.	.	.	.	.	.	.	.	.	.	.	.	.	.	.	.	.	.	.	.	.	.	.	.	2ff\	.	.	.	.	.	.	.	.
.	.	.	.	.	.	.	.	.	.	.	.	.	.	.	.	.	.	.	.	.	.	.	.	.	.	.	.	.	.	.	.	.	.	.	.	.	.	.	.	.	.	.	.	.	.	.	.	.	.	.	.	.	.	.	.	.	.	.	.	.	.	.	2gg\	.	.	.	.	.	.	.	.
.	.	.	.	.	.	.	.	.	.	.	.	.	.	.	.	.	.	.	.	.	.	.	.	.	.	.	.	.	.	.	.	.	.	.	.	2d\	.	.	.	.	.	.	.	.	.	.	.	.	.	.	.	.	.	.	.	.	.	.	.	.	.	.	2ff\	.	.	.	.	.	.	.	.
1c	to-	lau-	-gui-	com-	con-	do-	coe-	-cet	1g	to-	lau-	-gui-	com-	con-	do-	coe-	-cet	1g	to-	lau-	-gui-	com-	con-	do-	coe-	-cet	1cc	to-	lau-	lan-	com-	con-	do-	coe-	-lo-	1c	-tum	.	-dos	-da	.	.	.	-cet	1g	-tum	.	-dos	-da	.	.	.	-cet	1cc	-tum	.	-dos	-da	.	.	.	-cet	1ee	-tum	.	-dos	-da	.	.	.	-cet
=24-	=24-	=24-	=24-	=24-	=24-	=24-	=24-	=24-	=24-	=24-	=24-	=24-	=24-	=24-	=24-	=24-	=24-	=24-	=24-	=24-	=24-	=24-	=24-	=24-	=24-	=24-	=24-	=24-	=24-	=24-	=24-	=24-	=24-	=24-	=24-	=24-	=24-	=24-	=24-	=24-	=24-	=24-	=24-	=24-	=24-	=24-	=24-	=24-	=24-	=24-	=24-	=24-	=24-	=24-	=24-	=24-	=24-	=24-	=24-	=24-	=24-	=24-	=24-	=24-	=24-	=24-	=24-	=24-	=24-	=24-	=24-
*	*	*	*	*	*	*	*	*	*lig	*	*	*	*	*	*	*	*	*	*	*	*	*	*	*	*	*	*	*	*	*	*	*	*	*	*	*	*	*	*	*	*	*	*	*	*	*	*	*	*	*	*	*	*	*	*	*	*	*	*	*	*	*	*	*	*	*	*	*	*	*	*
0G	-tum	-da-	-dos	-men-	-do-	-cu-	-li	so-	1g	-tum	-da-	-dos	-men-	-do-	-cu-	-li	so-	0b	-tum	-da-	-dos	-men-	-do-	-cu-	-li	so-	1.dd	.	-da-	-gui-	-men-	-do-	-cu-	-li	-cet	0g	mun-	.	ſa-	glo-	.	.	so-	so-	0g,<	mun-	.	ſa-	glo-	.	.	so-	so-	1.b	mun-	.	ſa-	glo-	.	.	so-	so-	1.dd	mun-	.	ſa-	glo-	.	.	so-	so-
.	.	.	.	.	.	.	.	.	1d	.	.	.	.	.	.	.	.	.	.	.	.	.	.	.	.	.	.	.	.	.	.	.	.	.	.	.	.	.	.	.	.	.	.	.	.	.	.	.	.	.	.	.	.	.	.	.	.	.	.	.	.	.	.	.	.	.	.	.	.	.	.
!	!	!	!	!	!	!	!	!	!	!	!	!	!	!	!	!	!	!	!	!	!	!	!	!	!	!	!	!	!	!	!	!	!	!	!	!	!	!	!	!	!	!	!	!	!	!	!	!	!	!	!	!	!	!	!	!	!	!	!	!	!	!	!LO:TX:t=P:problem=# below	!	!	!	!	!	!	!	!
.	.	.	.	.	.	.	.	.	.	.	.	.	.	.	.	.	.	.	.	.	.	.	.	.	.	.	2ee\	-tum	.	-dos	-da	.	.	so-	so-	.	.	.	.	.	.	.	.	.	.	.	.	.	.	.	.	.	.	2a\	.	.	.	.	.	.	.	.	2cc#X\	.	-bi-	.	.	.	.	.	.
*	*	*	*	*	*	*	*	*	*Xlig	*	*	*	*	*	*	*	*	*	*	*	*	*	*	*	*	*	*	*	*	*	*	*	*	*	*	*	*	*	*	*	*	*	*	*	*	*	*	*	*	*	*	*	*	*	*	*	*	*	*	*	*	*	*	*	*	*	*	*	*	*	*
1G	mun-	.	ſa-	glo-	.	.	-li-	-li-	1g	mun-	.	ſa-	glo-	.	.	-li-	-li-	1g	mun-	.	ſa-	glo-	.	.	-li-	-li-	1dd	mun-	.	ſa-	glo-	.	.	-li-	-li-	1g	.	-bi-	.	-ri-	-na-	-i-	-li-	-li-	1g	.	-bi-	.	-ri-	-na-	-i-	-li-	-li-	1b	.	-bi-	.	-ri-	-na-	-i-	-li-	-li-	1dd	.	.	.	-ri-	-na-	-i-	-li-	-li-
=25-	=25-	=25-	=25-	=25-	=25-	=25-	=25-	=25-	=25-	=25-	=25-	=25-	=25-	=25-	=25-	=25-	=25-	=25-	=25-	=25-	=25-	=25-	=25-	=25-	=25-	=25-	=25-	=25-	=25-	=25-	=25-	=25-	=25-	=25-	=25-	=25-	=25-	=25-	=25-	=25-	=25-	=25-	=25-	=25-	=25-	=25-	=25-	=25-	=25-	=25-	=25-	=25-	=25-	=25-	=25-	=25-	=25-	=25-	=25-	=25-	=25-	=25-	=25-	=25-	=25-	=25-	=25-	=25-	=25-	=25-	=25-
0c	-dum	-lis	-rat	-ae	-vit	-sti	-o.	-o.	0e	-dum	-lis	-rat	-ae	-vit	-sti	-o.	-o.	0g	-dum	-lis	-rat	-ae	-vit	-sti	-o.	-o.	0cc	-dum	-lis	-rat	-ae	-vit	-sti	-o.	-o	0c,<	-dum	-lis	-rat	-ae	-vit	-sti	-o.	-o.	0g,<	-dum	-lis	-rat	-ae	-vit	-sti	-o.	-o.	0cc,<	-dum	-lis	-rat	-ae	-vit	-sti	-o.	-o.	0ee,<	-dum	-lis	-rat	-ae	-vit	-sti	-o.	-o.
1r	.	.	.	.	.	.	.	.	1r	.	.	.	.	.	.	.	.	1r	.	.	.	.	.	.	.	.	1r	.	.	.	.	.	.	.	.	1G	Fe-	Fe-	Fe-	Fe-	Fe-	Fe-	Fe-	Fe-	1b	Fe-	Fe-	Fe-	Fe-	Fe-	Fe-	Fe-	Fe-	1dd	Fe-	Fe-	Fe-	Fe-	Fe-	Fe-	Fe-	Fe-	1gg	Fe-	Fe-	Fe-	Fe-	Fe-	Fe-	Fe-	Fe-
=26-	=26-	=26-	=26-	=26-	=26-	=26-	=26-	=26-	=26-	=26-	=26-	=26-	=26-	=26-	=26-	=26-	=26-	=26-	=26-	=26-	=26-	=26-	=26-	=26-	=26-	=26-	=26-	=26-	=26-	=26-	=26-	=26-	=26-	=26-	=26-	=26-	=26-	=26-	=26-	=26-	=26-	=26-	=26-	=26-	=26-	=26-	=26-	=26-	=26-	=26-	=26-	=26-	=26-	=26-	=26-	=26-	=26-	=26-	=26-	=26-	=26-	=26-	=26-	=26-	=26-	=26-	=26-	=26-	=26-	=26-	=26-
!	!	!	!	!	!	!	!	!	!	!	!	!	!	!	!	!	!	!	!	!	!	!	!	!	!	!	!	!	!	!	!	!	!	!	!	!	!	!	!	!	!	!	!	!	!	!	!	!	!	!	!	!	!	!	!	!	!	!	!	!	!	!	!LO:TX:t=P:problem=# below	!	!	!	!	!	!	!	!
00.r	.	.	.	.	.	.	.	.	00.r	.	.	.	.	.	.	.	.	00.r	.	.	.	.	.	.	.	.	00.r	.	.	.	.	.	.	.	.	0d	-lix	-lix	-lix	-lix	-lix	-lix	-lix	-lix	0a	-lix	-lix	-lix	-lix	-lix	-lix	-lix	-lix	0dd	-lix	-lix	-lix	-lix	-lix	-lix	-lix	-lix	0ff#X	-lix	-lix	-lix	-lix	-lix	-lix	-lix	-lix
!	!	!	!	!	!	!	!	!	!	!	!	!	!	!	!	!	!	!	!	!	!	!	!	!	!	!	!	!	!	!	!	!	!	!	!	!	!	!	!	!	!	!	!	!	!	!	!	!	!	!	!	!	!	!	!	!	!	!	!	!	!	!	!LO:TX:t=P:problem=# below	!	!	!	!	!	!	!	!
.	.	.	.	.	.	.	.	.	.	.	.	.	.	.	.	.	.	.	.	.	.	.	.	.	.	.	.	.	.	.	.	.	.	.	.	1d	di-	di-	di-	di-	di-	di-	di-	di-	1a	di-	di-	di-	di-	di-	di-	di-	di-	1dd	di-	di-	di-	di-	di-	di-	di-	di-	1ff#X	di-	di-	di-	di-	di-	di-	di-	di-
=27-	=27-	=27-	=27-	=27-	=27-	=27-	=27-	=27-	=27-	=27-	=27-	=27-	=27-	=27-	=27-	=27-	=27-	=27-	=27-	=27-	=27-	=27-	=27-	=27-	=27-	=27-	=27-	=27-	=27-	=27-	=27-	=27-	=27-	=27-	=27-	=27-	=27-	=27-	=27-	=27-	=27-	=27-	=27-	=27-	=27-	=27-	=27-	=27-	=27-	=27-	=27-	=27-	=27-	=27-	=27-	=27-	=27-	=27-	=27-	=27-	=27-	=27-	=27-	=27-	=27-	=27-	=27-	=27-	=27-	=27-	=27-
.	.	.	.	.	.	.	.	.	.	.	.	.	.	.	.	.	.	.	.	.	.	.	.	.	.	.	.	.	.	.	.	.	.	.	.	0G	-es	-es	-es	-es	-es	-es	-es	-es	0b	-es	-es	-es	-es	-es	-es	-es	-es	0dd	-es	-es	-es	-es	-es	-es	-es	-es	0gg	-es	-es	-es	-es	-es	-es	-es	-es
.	.	.	.	.	.	.	.	.	.	.	.	.	.	.	.	.	.	.	.	.	.	.	.	.	.	.	.	.	.	.	.	.	.	.	.	1r	.	.	.	.	.	.	.	.	1r	.	.	.	.	.	.	.	.	1r	.	.	.	.	.	.	.	.	1r	.	.	.	.	.	.	.	.
=28-	=28-	=28-	=28-	=28-	=28-	=28-	=28-	=28-	=28-	=28-	=28-	=28-	=28-	=28-	=28-	=28-	=28-	=28-	=28-	=28-	=28-	=28-	=28-	=28-	=28-	=28-	=28-	=28-	=28-	=28-	=28-	=28-	=28-	=28-	=28-	=28-	=28-	=28-	=28-	=28-	=28-	=28-	=28-	=28-	=28-	=28-	=28-	=28-	=28-	=28-	=28-	=28-	=28-	=28-	=28-	=28-	=28-	=28-	=28-	=28-	=28-	=28-	=28-	=28-	=28-	=28-	=28-	=28-	=28-	=28-	=28-
1r	.	.	.	.	.	.	.	.	1r	.	.	.	.	.	.	.	.	1r	.	.	.	.	.	.	.	.	1r	.	.	.	.	.	.	.	.	00.r	.	.	.	.	.	.	.	.	00.r	.	.	.	.	.	.	.	.	00.r	.	.	.	.	.	.	.	.	00.r	.	.	.	.	.	.	.	.
1r	.	.	.	.	.	.	.	.	1r	.	.	.	.	.	.	.	.	1r	.	.	.	.	.	.	.	.	1r	.	.	.	.	.	.	.	.	.	.	.	.	.	.	.	.	.	.	.	.	.	.	.	.	.	.	.	.	.	.	.	.	.	.	.	.	.	.	.	.	.	.	.	.
1c	Fe-	Fe-	Fe-	Fe-	Fe-	Fe-	Fe-	Fe-	1g	Fe-	Fe-	Fe-	Fe-	Fe-	Fe-	Fe-	Fe-	1cc	Fe-	Fe-	Fe-	Fe-	Fe-	Fe-	Fe-	Fe-	1ee	Fe-	Fe-	Fe-	Fe-	Fe-	Fe-	Fe-	Fe-	.	.	.	.	.	.	.	.	.	.	.	.	.	.	.	.	.	.	.	.	.	.	.	.	.	.	.	.	.	.	.	.	.	.	.	.
=29-	=29-	=29-	=29-	=29-	=29-	=29-	=29-	=29-	=29-	=29-	=29-	=29-	=29-	=29-	=29-	=29-	=29-	=29-	=29-	=29-	=29-	=29-	=29-	=29-	=29-	=29-	=29-	=29-	=29-	=29-	=29-	=29-	=29-	=29-	=29-	=29-	=29-	=29-	=29-	=29-	=29-	=29-	=29-	=29-	=29-	=29-	=29-	=29-	=29-	=29-	=29-	=29-	=29-	=29-	=29-	=29-	=29-	=29-	=29-	=29-	=29-	=29-	=29-	=29-	=29-	=29-	=29-	=29-	=29-	=29-	=29-
0g	-lix	-lix	-lix	-lix	-lix	-lix	-lix	-lix	0g	-lix	-lix	-lix	-lix	-lix	-lix	-lix	-lix	0b	-lix	-lix	-lix	-lix	-lix	-lix	-lix	-lix	0dd	-lix	-lix	-lix	-lix	-lix	-lix	-lix	-lix	.	.	.	.	.	.	.	.	.	.	.	.	.	.	.	.	.	.	.	.	.	.	.	.	.	.	.	.	.	.	.	.	.	.	.	.
1g	di-	di-	di-	di-	di-	di-	di-	di-	1g	di-	di-	di-	di-	di-	di-	di-	di-	1b	di-	di-	di-	di-	di-	di-	di-	di-	1dd	di-	di-	di-	di-	di-	di-	di-	di-	.	.	.	.	.	.	.	.	.	.	.	.	.	.	.	.	.	.	.	.	.	.	.	.	.	.	.	.	.	.	.	.	.	.	.	.
=30-	=30-	=30-	=30-	=30-	=30-	=30-	=30-	=30-	=30-	=30-	=30-	=30-	=30-	=30-	=30-	=30-	=30-	=30-	=30-	=30-	=30-	=30-	=30-	=30-	=30-	=30-	=30-	=30-	=30-	=30-	=30-	=30-	=30-	=30-	=30-	=30-	=30-	=30-	=30-	=30-	=30-	=30-	=30-	=30-	=30-	=30-	=30-	=30-	=30-	=30-	=30-	=30-	=30-	=30-	=30-	=30-	=30-	=30-	=30-	=30-	=30-	=30-	=30-	=30-	=30-	=30-	=30-	=30-	=30-	=30-	=30-
!	!	!	!	!	!	!	!	!	!	!	!	!	!	!	!	!	!	!	!	!	!	!	!	!	!	!	!LO:TX:t=P:global:problem=kreska oddechu na różnych liniach [rozdzielacz słów / znak oddechu]	!	!	!	!	!	!	!	!	!	!	!	!	!	!	!	!	!	!	!	!	!	!	!	!	!	!	!	!	!	!	!	!	!	!	!	!	!	!	!	!	!	!	!	!
0c	-es	-es	-es	-es	-es	-es	-es	-es	0g	-es	-es	-es	-es	-es	-es	-es	-es	0cc	-es	-es	-es	-es	-es	-es	-es	-es	0ee,<	-es	-es	-es	-es	-es	-es	-es	-es	1r	.	.	.	.	.	.	.	.	1r	.	.	.	.	.	.	.	.	1r	.	.	.	.	.	.	.	.	1r	.	.	.	.	.	.	.	.
.	.	.	.	.	.	.	.	.	.	.	.	.	.	.	.	.	.	.	.	.	.	.	.	.	.	.	.	.	.	.	.	.	.	.	.	1r	.	.	.	.	.	.	.	.	1r	.	.	.	.	.	.	.	.	1r	.	.	.	.	.	.	.	.	1r	.	.	.	.	.	.	.	.
*	*	*ij	*ij	*ij	*ij	*ij	*ij	*ij	*	*	*	*ij	*ij	*ij	*ij	*ij	*ij	*	*	*	*	*ij	*ij	*ij	*ij	*ij	*	*	*ij	*ij	*ij	*ij	*ij	*ij	*ij	*	*	*ij	*ij	*ij	*ij	*ij	*ij	*ij	*	*	*	*ij	*ij	*ij	*ij	*ij	*ij	*	*	*	*	*ij	*ij	*ij	*ij	*ij	*	*	*	*ij	*ij	*ij	*ij	*ij	*ij
1c	Fe-	fe-	fe-	fe-	fe-	fe-	fe-	fe-	1g	Fe-	Fe-	fe-	fe-	fe-	fe-	fe-	fe-	1cc	Fe-	Fe-	Fe-	fe-	fe-	fe-	fe-	fe-	1ee	fe-	fe-	fe-	fe-	fe-	fe-	fe-	fe-	1c	fe-	fe-	fe-	fe-	fe-	fe-	fe-	fe-	1g	fe-	fe-	fe-	fe-	fe-	fe-	fe-	fe-	1cc	fe-	fe-	fe-	fe-	fe-	fe-	fe-	fe-	1gg	fe-	fe-	fe-	fe-	fe-	fe-	fe-	fe-
=31-	=31-	=31-	=31-	=31-	=31-	=31-	=31-	=31-	=31-	=31-	=31-	=31-	=31-	=31-	=31-	=31-	=31-	=31-	=31-	=31-	=31-	=31-	=31-	=31-	=31-	=31-	=31-	=31-	=31-	=31-	=31-	=31-	=31-	=31-	=31-	=31-	=31-	=31-	=31-	=31-	=31-	=31-	=31-	=31-	=31-	=31-	=31-	=31-	=31-	=31-	=31-	=31-	=31-	=31-	=31-	=31-	=31-	=31-	=31-	=31-	=31-	=31-	=31-	=31-	=31-	=31-	=31-	=31-	=31-	=31-	=31-
0c	-lix	-lix	-lix	-lix	-lix	-lix	-lix	-lix	0e	-lix	-lix	-lix	-lix	-lix	-lix	-lix	-lix	0cc	-lix	-lix	-lix	-lix	-lix	-lix	-lix	-lix	0ee	-lix	-lix	-lix	-lix	-lix	-lix	-lix	-lix	0c	-lix	-lix	-lix	-lix	-lix	-lix	-lix	-lix	0g	-lix	-lix	-lix	-lix	-lix	-lix	-lix	-lix	0cc	-lix	-lix	-lix	-lix	-lix	-lix	-lix	-lix	0gg	-lix	-lix	-lix	-lix	-lix	-lix	-lix	-lix
1F	di-	di-	di-	di-	di-	di-	di-	di-	1f	di-	di-	di-	di-	di-	di-	di-	di-	1cc	di-	di-	di-	di-	di-	di-	di-	di-	1cc	di-	di-	di-	di-	di-	di-	di-	di-	1f	di-	di-	di-	di-	di-	di-	di-	di-	1a	di-	di-	di-	di-	di-	di-	di-	di-	1cc	di-	di-	di-	di-	di-	di-	di-	di-	1ffny	di-	di-	di-	di-	di-	di-	di-	di-
=32-	=32-	=32-	=32-	=32-	=32-	=32-	=32-	=32-	=32-	=32-	=32-	=32-	=32-	=32-	=32-	=32-	=32-	=32-	=32-	=32-	=32-	=32-	=32-	=32-	=32-	=32-	=32-	=32-	=32-	=32-	=32-	=32-	=32-	=32-	=32-	=32-	=32-	=32-	=32-	=32-	=32-	=32-	=32-	=32-	=32-	=32-	=32-	=32-	=32-	=32-	=32-	=32-	=32-	=32-	=32-	=32-	=32-	=32-	=32-	=32-	=32-	=32-	=32-	=32-	=32-	=32-	=32-	=32-	=32-	=32-	=32-
1c	-es	-es	-es	-es	-es	-es	-es	-es	1g	-es	-es	-es	-es	-es	-es	-es	-es	1ee	-es	-es	-es	-es	-es	-es	-es	-es	1cc	-es	-es	-es	-es	-es	-es	-es	-es	1c	-es	-es	-es	-es	-es	-es	-es	-es	1g	-es	-es	-es	-es	-es	-es	-es	-es	1cc	-es	-es	-es	-es	-es	-es	-es	-es	1ee	-es	-es	-es	-es	-es	-es	-es	-es
0G	is-	is-	is-	is-	is-	is-	is-	is-	0g	is-	is-	is-	is-	is-	is-	is-	is-	0dd	is-	is-	is-	is-	is-	is-	is-	is-	0dd	is-	is-	is-	is-	is-	is-	is-	is-	0g	iſ-	is-	is-	is-	is-	is-	is-	is-	0g	iſ-	is-	is-	is-	is-	is-	is-	is-	2b\	iſ-	is-	is-	is-	is-	is-	is-	is-	0gg	iſ-	is-	is-	is-	is-	is-	is-	is-
.	.	.	.	.	.	.	.	.	.	.	.	.	.	.	.	.	.	.	.	.	.	.	.	.	.	.	.	.	.	.	.	.	.	.	.	.	.	.	.	.	.	.	.	.	.	.	.	.	.	.	.	.	.	2a\	.	.	.	.	.	.	.	.	.	.	.	.	.	.	.	.	.
.	.	.	.	.	.	.	.	.	.	.	.	.	.	.	.	.	.	.	.	.	.	.	.	.	.	.	.	.	.	.	.	.	.	.	.	.	.	.	.	.	.	.	.	.	.	.	.	.	.	.	.	.	.	1b	.	.	.	.	.	.	.	.	.	.	.	.	.	.	.	.	.
=33-	=33-	=33-	=33-	=33-	=33-	=33-	=33-	=33-	=33-	=33-	=33-	=33-	=33-	=33-	=33-	=33-	=33-	=33-	=33-	=33-	=33-	=33-	=33-	=33-	=33-	=33-	=33-	=33-	=33-	=33-	=33-	=33-	=33-	=33-	=33-	=33-	=33-	=33-	=33-	=33-	=33-	=33-	=33-	=33-	=33-	=33-	=33-	=33-	=33-	=33-	=33-	=33-	=33-	=33-	=33-	=33-	=33-	=33-	=33-	=33-	=33-	=33-	=33-	=33-	=33-	=33-	=33-	=33-	=33-	=33-	=33-
0.c;	-ta	-ta	-ta	-ta	-ta	-ta	-ta	-ta	0.gl;>	-ta	-ta	-ta	-ta	-ta	-ta	-ta	-ta	0.ccl;>	-ta	-ta	-ta	-ta	-ta	-ta	-ta	-ta	0.eel;>	-ta	-ta	-ta	-ta	-ta	-ta	-ta	-ta	0.cl;>	-ta	-ta	-ta	-ta	-ta	-ta	-ta	-ta	0.gl;>	-ta	-ta	-ta	-ta	-ta	-ta	-ta	-ta	0.ccl	-ta	-ta	-ta	-ta	-ta	-ta	-ta	-ta	0.ggl	-ta	-ta	-ta	-ta	-ta	-ta	-ta	-ta
*	*	*Xij	*Xij	*Xij	*Xij	*Xij	*Xij	*Xij	*	*	*	*Xij	*Xij	*Xij	*Xij	*Xij	*Xij	*	*	*	*	*Xij	*Xij	*Xij	*Xij	*Xij	*	*	*Xij	*Xij	*Xij	*Xij	*Xij	*Xij	*Xij	*	*	*Xij	*Xij	*Xij	*Xij	*Xij	*Xij	*Xij	*	*	*	*Xij	*Xij	*Xij	*Xij	*Xij	*Xij	*	*	*	*	*Xij	*Xij	*Xij	*Xij	*Xij	*	*	*	*Xij	*Xij	*Xij	*Xij	*Xij	*Xij
==	==	==	==	==	==	==	==	==	==	==	==	==	==	==	==	==	==	==	==	==	==	==	==	==	==	==	==	==	==	==	==	==	==	==	==	==	==	==	==	==	==	==	==	==	==	==	==	==	==	==	==	==	==	==	==	==	==	==	==	==	==	==	==	==	==	==	==	==	==	==	==
*-	*-	*-	*-	*-	*-	*-	*-	*-	*-	*-	*-	*-	*-	*-	*-	*-	*-	*-	*-	*-	*-	*-	*-	*-	*-	*-	*-	*-	*-	*-	*-	*-	*-	*-	*-	*-	*-	*-	*-	*-	*-	*-	*-	*-	*-	*-	*-	*-	*-	*-	*-	*-	*-	*-	*-	*-	*-	*-	*-	*-	*-	*-	*-	*-	*-	*-	*-	*-	*-	*-	*-
!!title: @{OTL};
!!!RDF**kern: > = above
!!!RDF**kern: < = below
!!!RDF**kern: | = vertical stroke
!!!RDF**kern: N = linked
!!!RDF**kern: i = editorial accidental
!!!RDF**kern: l = terminal long
!!!ENC: Andrzej Gręziak
!!!END: 2021-10-28
!!!EED: Wojciech Jakubiak-Danek
!!!EST: 2021-11-02
!!!URL-scan: http://repozytorium.nifc.pl/skany/pl-sa-nut--l1643
!!!ONB-nifc: UWAGA: 8 ksiąg. Primi chori: 1mus Cantus (strona 164-165, księga 1 skan 0095), C 2dus (strona 166-167, księga 2 skan 0090), C 3tius (strona 162-163, księga 3 skan 0071), Bassus (strona 162-163, księga 4 skan 0083); Secondi chori: Primus Cantus (strona 167-168, księga 5 skan 0083), C 2dus (strona 168-169, księga 6 skan 0075), Altus (strona 166-167, księga 7 skan 0081), Bassus (strona 163-164, księga 8 skan 0081). UWAGA: Nie dodawać pustych linii, chyba że w rękopisie pojawiają się dodatkowe oznaczenia dotyczące pełnej obsady (a 4, a 8 itp.)
